imgs/scroll-top.svg

<svg width="430" height="430" fill="none" xmlns="http://www.w3.org/2000/svg"><g clip-path="url(#a)" fill="#006AFE"><path d="M346.204 195.951c-14.083 0-25.5 11.417-25.5 25.5h-10v-27.474c0-14.083-11.417-25.5-25.5-25.5s-25.5 11.417-25.5 25.5v27.474h-10v-52.567c0-14.083-11.417-25.5-25.5-25.5s-25.5 11.417-25.5 25.5v52.567h-10V105.5c0-14.083-11.417-25.5-25.5-25.5s-25.5 11.417-25.5 25.5v188.798h-10v-61.571c0-14.083-11.417-25.5-25.5-25.5s-25.5 11.417-25.5 25.5v93.851c0 56.7 46.129 102.829 102.829 102.829h89.343c56.699 0 102.828-46.129 102.828-102.829V221.451c0-14.083-11.417-25.5-25.5-25.5ZM57.704 90.5h50v30h-50v-30ZM99.21 20.293l35.354 35.354-21.213 21.213-35.354-35.354L99.21 20.293ZM148.204 0h30v50h-30V0Z"/></g><defs><clipPath id="a"><path fill="#fff" d="M0 0h429.407v429.407H0z"/></clipPath></defs></svg>

<svg width="430" height="430" viewBox="0 0 430 430" fill="none" xmlns="http://www.w3.org/2000/svg">
<g clip-path="url(#clip0_141_79)">
<path d="M346.204 195.951C332.121 195.951 320.704 207.368 320.704 221.451H310.704V193.977C310.704 179.894 299.287 168.477 285.204 168.477C271.121 168.477 259.704 179.894 259.704 193.977V221.451H249.704V168.884C249.704 154.801 238.287 143.384 224.204 143.384C210.121 143.384 198.704 154.801 198.704 168.884V221.451H188.704V105.5C188.704 91.417 177.287 80 163.204 80C149.121 80 137.704 91.417 137.704 105.5V294.298H127.704V232.727C127.704 218.644 116.287 207.227 102.204 207.227C88.1211 207.227 76.7041 218.644 76.7041 232.727V326.578C76.7041 383.278 122.833 429.407 179.533 429.407H268.876C325.575 429.407 371.704 383.278 371.704 326.578V221.451C371.704 207.368 360.287 195.951 346.204 195.951Z" fill="#006AFE"/>
<path d="M57.7041 90.5H107.704V120.5H57.7041V90.5V90.5Z" fill="#006AFE"/>
<path d="M99.2101 20.293L134.564 55.647L113.351 76.86L77.9971 41.506L99.2101 20.293Z" fill="#006AFE"/>
<path d="M148.204 0H178.204V50H148.204V0Z" fill="#006AFE"/>
</g>
<defs>
<clipPath id="clip0_141_79">
<rect width="429.407" height="429.407" fill="white"/>
</clipPath>
</defs>
</svg>
